Avidclan_Website/assets/images/icons/load-balancing-ic.svg

<?xml version="1.0" encoding="utf-8"?>
<!-- Generator: Adobe Illustrator 24.1.1, SVG Export Plug-In . SVG Version: 6.00 Build 0)  -->
<svg version="1.1" id="Layer_1" xmlns="http://www.w3.org/2000/svg" xmlns:xlink="http://www.w3.org/1999/xlink" x="0px" y="0px"
	 viewBox="0 0 428.5 432.7" style="enable-background:new 0 0 428.5 432.7;" xml:space="preserve">
<style type="text/css">
	.st0{fill:#007AFB;}
</style>
<path class="st0" d="M338.7,18.9h66v56.8l-132,0V18.9L338.7,18.9 M89.8,18.9h66v56.8l-132,0V18.9L89.8,18.9 M338.7,136.4l66,0v56.8
	h-132v-56.8L338.7,136.4 M89.8,136.4h66v56.8h-132v-56.8H89.8 M409.5,257.1v26.7H18.9v-26.7H409.5 M209.5,360l20.7,33.8l12.4,20h-66
	l33.2-53.8 M338.9,0.1h-74.5c-7.4,0-10.6,3.2-10.6,10.6l0,73.1c0,7.7,3.1,10.8,10.8,10.8l148.6,0c7.2,0,10.3-3.2,10.4-10.3V10.7
	c0-7.4-3.2-10.6-10.6-10.6L338.9,0.1z M90,0.1H15.3C8,0.1,4.8,3.3,4.7,10.7v73.1c0,7.7,3.1,10.8,10.8,10.8h148.7
	c7.2,0,10.3-3.2,10.4-10.3V10.6C174.6,3.1,171.4,0,164,0L90,0.1z M338.7,117.4h-74.4c-7.4,0-10.6,3.2-10.6,10.6l0,73.2
	c0,7.7,3.1,10.8,10.8,10.8h148.6c7.2,0,10.3-3.2,10.4-10.3V128c0-7.4-3.2-10.6-10.6-10.6H338.7z M89.8,117.4H15.3
	c-7.4,0-10.6,3.2-10.6,10.6v73.2c0,7.7,3.1,10.8,10.8,10.8h148.7c7.2,0,10.3-3.2,10.4-10.3V128c0-7.4-3.2-10.6-10.6-10.6H89.8z
	 M428.5,238.1H0v64.6h428.5V238.1z M209.5,323.8l-66.8,108.9l133.7,0L209.5,323.8z"/>
</svg>

<svg width="429" height="433" viewBox="0 0 429 433" fill="none" xmlns="http://www.w3.org/2000/svg">
<g clip-path="url(#clip0_493_268)">
<path d="M338.7 18.9H404.7V75.7H272.7V18.9H338.7ZM89.8 18.9H155.8V75.7H23.8V18.9H89.8ZM338.7 136.4H404.7V193.2H272.7V136.4H338.7ZM89.8 136.4H155.8V193.2H23.8V136.4H89.8ZM409.5 257.1V283.8H18.9V257.1H409.5ZM209.5 360L230.2 393.8L242.6 413.8H176.6L209.8 360M338.9 0.1H264.4C257 0.1 253.8 3.3 253.8 10.7V83.8C253.8 91.5 256.9 94.6 264.6 94.6H413.2C420.4 94.6 423.5 91.4 423.6 84.3V10.7C423.6 3.3 420.4 0.1 413 0.1H338.9ZM90 0.1H15.3C8 0.1 4.8 3.3 4.7 10.7V83.8C4.7 91.5 7.8 94.6 15.5 94.6H164.2C171.4 94.6 174.5 91.4 174.6 84.3V10.6C174.6 3.1 171.4 0 164 0L90 0.1ZM338.7 117.4H264.3C256.9 117.4 253.7 120.6 253.7 128V201.2C253.7 208.9 256.8 212 264.5 212H413.1C420.3 212 423.4 208.8 423.5 201.7V128C423.5 120.6 420.3 117.4 412.9 117.4H338.7ZM89.8 117.4H15.3C7.9 117.4 4.7 120.6 4.7 128V201.2C4.7 208.9 7.8 212 15.5 212H164.2C171.4 212 174.5 208.8 174.6 201.7V128C174.6 120.6 171.4 117.4 164 117.4H89.8ZM428.5 238.1H0V302.7H428.5V238.1ZM209.5 323.8L142.7 432.7H276.4L209.5 323.8Z" fill="#0E53BE"/>
</g>
<defs>
<clipPath id="clip0_493_268">
<rect width="428.5" height="432.7" fill="white"/>
</clipPath>
</defs>
</svg>
